shell/app/images/empty-holder/empty-message.svg

<?xml version="1.0" encoding="UTF-8"?>
<svg width="96px" height="96px" viewBox="0 0 96 96" version="1.1" xmlns="http://www.w3.org/2000/svg" xmlns:xlink="http://www.w3.org/1999/xlink">
    <title>占位符/暂无消息</title>
    <defs>
        <rect id="path-1" x="0" y="0" width="80" height="64" rx="2"></rect>
        <filter x="-8.1%" y="-8.6%" width="116.2%" height="120.3%" filterUnits="objectBoundingBox" id="filter-2">
            <feOffset dx="0" dy="1" in="SourceAlpha" result="shadowOffsetOuter1"></feOffset>
            <feGaussianBlur stdDeviation="2" in="shadowOffsetOuter1" result="shadowBlurOuter1"></feGaussianBlur>
            <feColorMatrix values="0 0 0 0 0.188235294   0 0 0 0 0.149019608   0 0 0 0 0.278431373  0 0 0 0.16 0" type="matrix" in="shadowBlurOuter1"></feColorMatrix>
        </filter>
        <rect id="path-3" x="0" y="0" width="72" height="20" rx="2"></rect>
        <filter x="-9.0%" y="-27.5%" width="118.1%" height="165.0%" filterUnits="objectBoundingBox" id="filter-4">
            <feOffset dx="0" dy="1" in="SourceAlpha" result="shadowOffsetOuter1"></feOffset>
            <feGaussianBlur stdDeviation="2" in="shadowOffsetOuter1" result="shadowBlurOuter1"></feGaussianBlur>
            <feColorMatrix values="0 0 0 0 0.188235294   0 0 0 0 0.149019608   0 0 0 0 0.278431373  0 0 0 0.16 0" type="matrix" in="shadowBlurOuter1"></feColorMatrix>
        </filter>
    </defs>
    <g id="占位符/暂无消息" stroke="none" stroke-width="1" fill="none" fill-rule="evenodd">
        <rect id="矩形" x="0" y="0" width="96" height="96"></rect>
        <g id="编组-13" transform="translate(8.000000, 16.000000)">
            <g id="矩形">
                <use fill="black" fill-opacity="1" filter="url(#filter-2)" xlink:href="#path-1"></use>
                <use fill="#FFFFFF" fill-rule="evenodd" xlink:href="#path-1"></use>
            </g>
            <g id="编组-10" transform="translate(4.000000, 4.000000)">
                <rect id="矩形" stroke-opacity="0.04" stroke="#302647" x="0.5" y="0.5" width="71" height="19" rx="2"></rect>
                <g id="默认头像" transform="translate(59.000000, 6.000000)">
                    <circle id="蒙版" fill="#DEDCE1" cx="4" cy="4" r="4"></circle>
                    <path d="M4,4.9707282 C4.11814036,4.9707282 4.25147369,4.99620284 4.38987135,5.03016904 L4.81012865,5.14055916 C4.87932748,5.15754226 4.94726023,5.17240247 5.01266081,5.1830169 L5.2,5.2 C5.67016548,5.2 6.07999662,5.51998649 6.1940285,5.976114 L6.48404365,7.13541015 C5.80172164,7.67671119 4.9386149,8 4,8 C3.06185324,8 2.19913933,7.67703359 1.51697741,7.13621991 L1.8059715,5.976114 C1.91050072,5.55799711 2.26358349,5.2542765 2.68385186,5.20655999 L2.8,5.2 C3.10468872,5.2 3.69531128,4.9707282 4,4.9707282 Z M4.99358451,6.06929947 L4.77926998,6.06929947 L4.70650967,6.49323204 L4.65261721,6.4532384 L4.65261721,6.4532384 L4.59478835,6.42124349 C4.5513225,6.40364629 4.50224482,6.39484769 4.44755531,6.39484769 C4.3172101,6.39751393 4.21596354,6.43377483 4.14381564,6.50363038 C4.10993543,6.52975956 4.08454909,6.56415409 4.06765663,6.60681397 C4.04880484,6.64894061 4.0308216,6.71986266 4.01370691,6.81958013 C3.99686679,6.91769786 3.9905966,6.98808666 3.99489633,7.03074654 C3.99677911,7.07553942 4.01017601,7.11100045 4.03508703,7.13712962 C4.06172577,7.16912453 4.0973244,7.19472046 4.14188292,7.21391741 C4.18429906,7.23364761 4.2375457,7.24404595 4.30162284,7.24511245 C4.41546967,7.24297945 4.51295352,7.21071792 4.59407439,7.14832784 L4.59407439,7.14832784 L4.57911048,7.23551398 L4.7727278,7.23665191 C4.78606825,7.26284756 4.80537182,7.28670637 4.83063851,7.30822833 C4.89151197,7.36466705 4.98647323,7.39351351 5.1155223,7.3947677 C5.19425956,7.3947677 5.25720513,7.38661544 5.30435899,7.37031092 C5.35215621,7.3546335 5.3894608,7.33017672 5.4207296,7.29694059 L5.4207296,7.29694059 L5.40700604,7.38347996 L5.63987521,7.38347996 L5.74563614,6.71656245 L5.750288,6.6492875 C5.74876565,6.56520635 5.71634394,6.50360036 5.65302289,6.46446952 C5.57367268,6.41681015 5.46110331,6.39360757 5.31531476,6.39486176 C5.15067605,6.39245979 5.01722538,6.43605921 4.91496276,6.52566 L4.91496276,6.52566 L4.99358451,6.06929947 Z M3.33794839,6.06929947 L2.61060464,6.06929947 L2.45810778,7.23551398 L3.18545153,7.23551398 L3.20731151,7.06834056 L2.65262401,7.06834056 L2.69738989,6.72599502 L3.17082739,6.72599502 L3.19132765,6.56921995 L2.71789015,6.56921995 L2.76140091,6.23647288 L3.31608841,6.23647288 L3.33794839,6.06929947 Z M3.82037896,6.39484769 C3.7333998,6.39484769 3.65879898,6.42764247 3.5934515,6.49323204 L3.5934515,6.49323204 L3.60495675,6.40524603 L3.4416755,6.40524603 L3.33310778,7.23551398 L3.49638903,7.23551398 L3.56175977,6.73559349 L3.57540031,6.68040227 C3.58759387,6.64734086 3.60598714,6.62174493 3.63058014,6.60361448 C3.66389354,6.57588556 3.70138357,6.5620211 3.74305024,6.5620211 C3.78002941,6.5620211 3.81389354,6.57588556 3.84464264,6.60361448 L3.84464264,6.60361448 L3.98232401,6.45883751 L3.93566435,6.42399861 C3.90211723,6.40527566 3.86368877,6.39555868 3.82037896,6.39484769 Z M5.47264046,6.96959603 L5.46145278,7.04014443 L5.44514359,7.1047354 C5.43115481,7.14194315 5.41093404,7.16744509 5.38448128,7.18124122 C5.34108813,7.20193542 5.27083731,7.21165542 5.17372883,7.21040122 C5.09647717,7.21040122 5.04317689,7.19754574 5.01382798,7.17183477 C4.98259568,7.14863218 4.96961486,7.12041283 4.9748855,7.08717669 C4.98543287,7.01129797 5.05850064,6.97210442 5.19408882,6.96959603 L5.19408882,6.96959603 L5.47264046,6.96959603 Z M4.48449045,6.5620211 C4.53507825,6.5620211 4.57374289,6.5697532 4.60048435,6.58521741 C4.62722582,6.60068161 4.64391472,6.62094506 4.65055107,6.64600774 C4.6599219,6.67107042 4.66448311,6.69826609 4.66423471,6.72759476 C4.66056822,6.75692343 4.6559893,6.78758522 4.65049796,6.81958013 C4.64546422,6.8489088 4.63965535,6.87877072 4.63307134,6.90916588 C4.6229777,6.9400943 4.60894392,6.96808984 4.59096999,6.99315252 C4.57573053,7.0182152 4.55208592,7.03847865 4.52003616,7.05394285 C4.48789487,7.06994031 4.44653033,7.07793904 4.39594253,7.07793904 C4.34535473,7.07793904 4.30801157,7.07047356 4.28391306,7.0555426 C4.25717159,7.04007839 4.23902393,7.0203482 4.22947006,6.99635201 C4.22078285,6.97128933 4.2170883,6.94302716 4.21838641,6.9115655 C4.21940995,6.88170358 4.22262163,6.85104179 4.22802145,6.81958013 C4.23369584,6.78651872 4.2412838,6.75425719 4.25078534,6.72279553 C4.25992078,6.69346686 4.27313366,6.66627118 4.29042398,6.6412085 C4.30839791,6.61614582 4.33331823,6.59641563 4.36518495,6.58201792 C4.39413415,6.5686867 4.43390265,6.5620211 4.48449045,6.5620211 Z M4.91110778,6.54529947 L5.06563827,6.65542051 L5.1070359,6.61920566 L5.1070359,6.61920566 L5.15763639,6.59521921 C5.19265372,6.58518566 5.23913176,6.58016888 5.2970705,6.58016888 C5.45717122,6.5776605 5.52966672,6.61936244 5.514557,6.70527471 L5.514557,6.70527471 L5.49829756,6.80780504 L5.17629186,6.80780504 L5.0884328,6.81380166 C5.00534298,6.82485424 4.93656091,6.85107473 4.88208659,6.89246312 L4.88208659,6.89246312 L4.84710778,6.92329947 L4.91110778,6.54529947 Z M5.6,2.4 L5.6,3.2 C5.6,4.0836556 4.8836556,4.8 4,4.8 C3.1163444,4.8 2.4,4.0836556 2.4,3.2 L2.4,2.4 C3.11078798,2.6 3.64412131,2.7 4,2.7 C4.35587869,2.7 4.88921202,2.6 5.6,2.4 Z" id="形状结合" fill-opacity="0.4" fill="#302647"></path>
                    <g id="Erda" transform="translate(2.458108, 6.069299)"></g>
                </g>
                <g id="编组-9" transform="translate(7.000000, 6.000000)" fill="#302647">
                    <rect id="矩形" fill-opacity="0.2" x="0" y="0" width="14" height="4"></rect>
                    <rect id="矩形备份" fill-opacity="0.06" x="0" y="6" width="24" height="2"></rect>
                </g>
            </g>
            <g id="编组-11" transform="translate(4.000000, 27.000000)">
                <g id="矩形备份-7">
                    <use fill="black" fill-opacity="1" filter="url(#filter-4)" xlink:href="#path-3"></use>
                    <use fill="#FFFFFF" fill-rule="evenodd" xlink:href="#path-3"></use>
                </g>
                <g id="默认头像" transform="translate(59.000000, 6.000000)">
                    <circle id="蒙版" fill="#DEDCE1" cx="4" cy="4" r="4"></circle>
                    <path d="M4,4.9707282 C4.11814036,4.9707282 4.25147369,4.99620284 4.38987135,5.03016904 L4.81012865,5.14055916 C4.87932748,5.15754226 4.94726023,5.17240247 5.01266081,5.1830169 L5.2,5.2 C5.67016548,5.2 6.07999662,5.51998649 6.1940285,5.976114 L6.48404365,7.13541015 C5.80172164,7.67671119 4.9386149,8 4,8 C3.06185324,8 2.19913933,7.67703359 1.51697741,7.13621991 L1.8059715,5.976114 C1.91050072,5.55799711 2.26358349,5.2542765 2.68385186,5.20655999 L2.8,5.2 C3.10468872,5.2 3.69531128,4.9707282 4,4.9707282 Z M4.99358451,6.06929947 L4.77926998,6.06929947 L4.70650967,6.49323204 L4.65261721,6.4532384 L4.65261721,6.4532384 L4.59478835,6.42124349 C4.5513225,6.40364629 4.50224482,6.39484769 4.44755531,6.39484769 C4.3172101,6.39751393 4.21596354,6.43377483 4.14381564,6.50363038 C4.10993543,6.52975956 4.08454909,6.56415409 4.06765663,6.60681397 C4.04880484,6.64894061 4.0308216,6.71986266 4.01370691,6.81958013 C3.99686679,6.91769786 3.9905966,6.98808666 3.99489633,7.03074654 C3.99677911,7.07553942 4.01017601,7.11100045 4.03508703,7.13712962 C4.06172577,7.16912453 4.0973244,7.19472046 4.14188292,7.21391741 C4.18429906,7.23364761 4.2375457,7.24404595 4.30162284,7.24511245 C4.41546967,7.24297945 4.51295352,7.21071792 4.59407439,7.14832784 L4.59407439,7.14832784 L4.57911048,7.23551398 L4.7727278,7.23665191 C4.78606825,7.26284756 4.80537182,7.28670637 4.83063851,7.30822833 C4.89151197,7.36466705 4.98647323,7.39351351 5.1155223,7.3947677 C5.19425956,7.3947677 5.25720513,7.38661544 5.30435899,7.37031092 C5.35215621,7.3546335 5.3894608,7.33017672 5.4207296,7.29694059 L5.4207296,7.29694059 L5.40700604,7.38347996 L5.63987521,7.38347996 L5.74563614,6.71656245 L5.750288,6.6492875 C5.74876565,6.56520635 5.71634394,6.50360036 5.65302289,6.46446952 C5.57367268,6.41681015 5.46110331,6.39360757 5.31531476,6.39486176 C5.15067605,6.39245979 5.01722538,6.43605921 4.91496276,6.52566 L4.91496276,6.52566 L4.99358451,6.06929947 Z M3.33794839,6.06929947 L2.61060464,6.06929947 L2.45810778,7.23551398 L3.18545153,7.23551398 L3.20731151,7.06834056 L2.65262401,7.06834056 L2.69738989,6.72599502 L3.17082739,6.72599502 L3.19132765,6.56921995 L2.71789015,6.56921995 L2.76140091,6.23647288 L3.31608841,6.23647288 L3.33794839,6.06929947 Z M3.82037896,6.39484769 C3.7333998,6.39484769 3.65879898,6.42764247 3.5934515,6.49323204 L3.5934515,6.49323204 L3.60495675,6.40524603 L3.4416755,6.40524603 L3.33310778,7.23551398 L3.49638903,7.23551398 L3.56175977,6.73559349 L3.57540031,6.68040227 C3.58759387,6.64734086 3.60598714,6.62174493 3.63058014,6.60361448 C3.66389354,6.57588556 3.70138357,6.5620211 3.74305024,6.5620211 C3.78002941,6.5620211 3.81389354,6.57588556 3.84464264,6.60361448 L3.84464264,6.60361448 L3.98232401,6.45883751 L3.93566435,6.42399861 C3.90211723,6.40527566 3.86368877,6.39555868 3.82037896,6.39484769 Z M5.47264046,6.96959603 L5.46145278,7.04014443 L5.44514359,7.1047354 C5.43115481,7.14194315 5.41093404,7.16744509 5.38448128,7.18124122 C5.34108813,7.20193542 5.27083731,7.21165542 5.17372883,7.21040122 C5.09647717,7.21040122 5.04317689,7.19754574 5.01382798,7.17183477 C4.98259568,7.14863218 4.96961486,7.12041283 4.9748855,7.08717669 C4.98543287,7.01129797 5.05850064,6.97210442 5.19408882,6.96959603 L5.19408882,6.96959603 L5.47264046,6.96959603 Z M4.48449045,6.5620211 C4.53507825,6.5620211 4.57374289,6.5697532 4.60048435,6.58521741 C4.62722582,6.60068161 4.64391472,6.62094506 4.65055107,6.64600774 C4.6599219,6.67107042 4.66448311,6.69826609 4.66423471,6.72759476 C4.66056822,6.75692343 4.6559893,6.78758522 4.65049796,6.81958013 C4.64546422,6.8489088 4.63965535,6.87877072 4.63307134,6.90916588 C4.6229777,6.9400943 4.60894392,6.96808984 4.59096999,6.99315252 C4.57573053,7.0182152 4.55208592,7.03847865 4.52003616,7.05394285 C4.48789487,7.06994031 4.44653033,7.07793904 4.39594253,7.07793904 C4.34535473,7.07793904 4.30801157,7.07047356 4.28391306,7.0555426 C4.25717159,7.04007839 4.23902393,7.0203482 4.22947006,6.99635201 C4.22078285,6.97128933 4.2170883,6.94302716 4.21838641,6.9115655 C4.21940995,6.88170358 4.22262163,6.85104179 4.22802145,6.81958013 C4.23369584,6.78651872 4.2412838,6.75425719 4.25078534,6.72279553 C4.25992078,6.69346686 4.27313366,6.66627118 4.29042398,6.6412085 C4.30839791,6.61614582 4.33331823,6.59641563 4.36518495,6.58201792 C4.39413415,6.5686867 4.43390265,6.5620211 4.48449045,6.5620211 Z M4.91110778,6.54529947 L5.06563827,6.65542051 L5.1070359,6.61920566 L5.1070359,6.61920566 L5.15763639,6.59521921 C5.19265372,6.58518566 5.23913176,6.58016888 5.2970705,6.58016888 C5.45717122,6.5776605 5.52966672,6.61936244 5.514557,6.70527471 L5.514557,6.70527471 L5.49829756,6.80780504 L5.17629186,6.80780504 L5.0884328,6.81380166 C5.00534298,6.82485424 4.93656091,6.85107473 4.88208659,6.89246312 L4.88208659,6.89246312 L4.84710778,6.92329947 L4.91110778,6.54529947 Z M5.6,2.4 L5.6,3.2 C5.6,4.0836556 4.8836556,4.8 4,4.8 C3.1163444,4.8 2.4,4.0836556 2.4,3.2 L2.4,2.4 C3.11078798,2.6 3.64412131,2.7 4,2.7 C4.35587869,2.7 4.88921202,2.6 5.6,2.4 Z" id="形状结合" fill-opacity="0.4" fill="#302647"></path>
                    <g id="Erda" transform="translate(2.458108, 6.069299)"></g>
                </g>
                <path d="M3.5,11.5 C4.32842712,11.5 5,10.8284271 5,10 C5,9.17157288 4.32842712,8.5 3.5,8.5 C2.67157288,8.5 2,9.17157288 2,10 C2,10.8284271 2.67157288,11.5 3.5,11.5 Z" id="椭圆形" fill="#D84B65"></path>
                <g id="编组-9备份" transform="translate(7.000000, 6.000000)">
                    <rect id="矩形" fill="#A051FF" x="0" y="0" width="14" height="4"></rect>
                    <rect id="矩形备份" fill-opacity="0.06" fill="#302647" x="0" y="6" width="19" height="2"></rect>
                </g>
            </g>
        </g>
    </g>
</svg>

<svg width="96" height="96" viewBox="0 0 96 96" xmlns="http://www.w3.org/2000/svg" xmlns:xlink="http://www.w3.org/1999/xlink"><defs><rect id="b" width="80" height="64" rx="2"/><filter x="-8.1%" y="-8.6%" width="116.2%" height="120.3%" filterUnits="objectBoundingBox" id="a"><feOffset dy="1" in="SourceAlpha" result="shadowOffsetOuter1"/><feGaussianBlur stdDeviation="2" in="shadowOffsetOuter1" result="shadowBlurOuter1"/><feColorMatrix values="0 0 0 0 0.188235294 0 0 0 0 0.149019608 0 0 0 0 0.278431373 0 0 0 0.16 0" in="shadowBlurOuter1"/></filter><rect id="d" width="72" height="20" rx="2"/><filter x="-9%" y="-27.5%" width="118.1%" height="165%" filterUnits="objectBoundingBox" id="c"><feOffset dy="1" in="SourceAlpha" result="shadowOffsetOuter1"/><feGaussianBlur stdDeviation="2" in="shadowOffsetOuter1" result="shadowBlurOuter1"/><feColorMatrix values="0 0 0 0 0.188235294 0 0 0 0 0.149019608 0 0 0 0 0.278431373 0 0 0 0.16 0" in="shadowBlurOuter1"/></filter></defs><g fill="none" fill-rule="evenodd"><path d="M0 0h96v96H0z"/><g transform="translate(8 16)"><use fill="#000" filter="url(#a)" xlink:href="#b"/><use fill="#FFF" xlink:href="#b"/></g><g transform="translate(12 20)"><rect stroke-opacity=".04" stroke="#302647" x=".5" y=".5" width="71" height="19" rx="2"/><g transform="translate(59 6)"><circle fill="#DEDCE1" cx="4" cy="4" r="4"/><path d="M4 4.97a1.7 1.7 0 0 1 .39.06l.42.11c.07.018.137.032.203.043L5.2 5.2c.47 0 .88.32.994.776l.29 1.16A3.983 3.983 0 0 1 4 8c-.938 0-1.8-.323-2.483-.864l.289-1.16c.105-.418.458-.722.878-.77L2.8 5.2c.305 0 .895-.23 1.2-.23zm.994 1.1h-.215l-.072.423-.054-.04-.058-.032a.39.39 0 0 0-.147-.026.432.432 0 0 0-.304.109.238.238 0 0 0-.076.103.98.98 0 0 0-.054.213.894.894 0 0 0-.02.21c.003.046.016.081.041.107a.28.28 0 0 0 .107.077.481.481 0 0 0 .452-.066l-.015.088h.194c.013.027.032.05.058.072.06.057.155.086.285.087a.594.594 0 0 0 .188-.025.27.27 0 0 0 .117-.073l-.014.086h.233l.106-.666.004-.068c-.001-.084-.034-.145-.097-.185a.649.649 0 0 0-.338-.07.572.572 0 0 0-.4.132l.079-.457zm-1.656 0H2.61l-.153 1.166h.727l.022-.168h-.554l.044-.342h.474l.02-.157h-.473l.043-.333h.555l.022-.167zm.482.325a.31.31 0 0 0-.227.098l.012-.088h-.163l-.109.83h.163l.066-.5.013-.055a.162.162 0 0 1 .056-.076.171.171 0 0 1 .112-.042c.037 0 .07.014.102.042l.137-.145-.046-.035a.24.24 0 0 0-.116-.03zm1.653.575l-.012.07-.016.065a.134.134 0 0 1-.06.076.508.508 0 0 1-.211.03c-.078 0-.13-.013-.16-.04-.031-.022-.044-.05-.04-.084.011-.076.085-.115.22-.117h.279zm-.989-.408c.051 0 .09.008.116.023a.1.1 0 0 1 .05.061c.01.025.014.052.014.082a2.043 2.043 0 0 1-.03.181.306.306 0 0 1-.043.084.163.163 0 0 1-.071.06.279.279 0 0 1-.124.025.218.218 0 0 1-.112-.022.12.12 0 0 1-.055-.06.229.229 0 0 1-.01-.084.682.682 0 0 1 .032-.19.3.3 0 0 1 .04-.08.181.181 0 0 1 .074-.06.29.29 0 0 1 .12-.02zm.427-.017l.155.11.041-.036.05-.024a.523.523 0 0 1 .14-.015c.16-.002.233.04.218.125l-.017.103h-.322l-.088.006a.428.428 0 0 0-.206.078l-.035.031.064-.378zM5.6 2.4v.8a1.6 1.6 0 1 1-3.2 0v-.8c.71.2 1.244.3 1.6.3.356 0 .89-.1 1.6-.3z" fill-opacity=".4" fill="#302647"/></g><g fill="#302647"><path fill-opacity=".2" d="M7 6h14v4H7z"/><path fill-opacity=".06" d="M7 12h24v2H7z"/></g></g><g transform="translate(12 43)"><use fill="#000" filter="url(#c)" xlink:href="#d"/><use fill="#FFF" xlink:href="#d"/></g><g transform="translate(71 49)"><circle fill="#DEDCE1" cx="4" cy="4" r="4"/><path d="M4 4.97a1.7 1.7 0 0 1 .39.06l.42.11c.07.018.137.032.203.043L5.2 5.2c.47 0 .88.32.994.776l.29 1.16A3.983 3.983 0 0 1 4 8c-.938 0-1.8-.323-2.483-.864l.289-1.16c.105-.418.458-.722.878-.77L2.8 5.2c.305 0 .895-.23 1.2-.23zm.994 1.1h-.215l-.072.423-.054-.04-.058-.032a.39.39 0 0 0-.147-.026.432.432 0 0 0-.304.109.238.238 0 0 0-.076.103.98.98 0 0 0-.054.213.894.894 0 0 0-.02.21c.003.046.016.081.041.107a.28.28 0 0 0 .107.077.481.481 0 0 0 .452-.066l-.015.088h.194c.013.027.032.05.058.072.06.057.155.086.285.087a.594.594 0 0 0 .188-.025.27.27 0 0 0 .117-.073l-.014.086h.233l.106-.666.004-.068c-.001-.084-.034-.145-.097-.185a.649.649 0 0 0-.338-.07.572.572 0 0 0-.4.132l.079-.457zm-1.656 0H2.61l-.153 1.166h.727l.022-.168h-.554l.044-.342h.474l.02-.157h-.473l.043-.333h.555l.022-.167zm.482.325a.31.31 0 0 0-.227.098l.012-.088h-.163l-.109.83h.163l.066-.5.013-.055a.162.162 0 0 1 .056-.076.171.171 0 0 1 .112-.042c.037 0 .07.014.102.042l.137-.145-.046-.035a.24.24 0 0 0-.116-.03zm1.653.575l-.012.07-.016.065a.134.134 0 0 1-.06.076.508.508 0 0 1-.211.03c-.078 0-.13-.013-.16-.04-.031-.022-.044-.05-.04-.084.011-.076.085-.115.22-.117h.279zm-.989-.408c.051 0 .09.008.116.023a.1.1 0 0 1 .05.061c.01.025.014.052.014.082a2.043 2.043 0 0 1-.03.181.306.306 0 0 1-.043.084.163.163 0 0 1-.071.06.279.279 0 0 1-.124.025.218.218 0 0 1-.112-.022.12.12 0 0 1-.055-.06.229.229 0 0 1-.01-.084.682.682 0 0 1 .032-.19.3.3 0 0 1 .04-.08.181.181 0 0 1 .074-.06.29.29 0 0 1 .12-.02zm.427-.017l.155.11.041-.036.05-.024a.523.523 0 0 1 .14-.015c.16-.002.233.04.218.125l-.017.103h-.322l-.088.006a.428.428 0 0 0-.206.078l-.035.031.064-.378zM5.6 2.4v.8a1.6 1.6 0 1 1-3.2 0v-.8c.71.2 1.244.3 1.6.3.356 0 .89-.1 1.6-.3z" fill-opacity=".4" fill="#302647"/></g><path d="M15.5 54.5a1.5 1.5 0 1 0 0-3 1.5 1.5 0 0 0 0 3z" fill="#D84B65"/><path fill="#A051FF" d="M19 49h14v4H19z"/><path fill-opacity=".06" fill="#302647" d="M19 55h19v2H19z"/></g></svg>
